X: 103
T:Never on Sunday
M:C
L:1/8
C:Manos Hadjidkas
K:G
|"Intro"Bd^cd cded|=cdBd AdGd|Fd^cd cded|!
f&gt;gfe decd|Bc/B/^AB cBAB|z c/B/^AB cBAB|G ","DGF GABc||!
"D7"d2 dc d2 dc|d2 dc decd|"G"B8|zDGF GABc|"D7"d2 dc d2 dc|!
d2 dc BcAB|"G"G8|zDGF GABc|"D7"d2 dc d2 dc|d2 dc decd|!
"G"B8|zDGF GABc|"D7"d2 dc d2 dc|d2 dc BcAB|"G"G8|z2 d2 e2 f2|!
"G"g8-|g2 fg a2 g2|"D7"f8-|f2 ef g2 f2|"Am7"e8-|"D7"e2 de f2 d2|"G"B8|z2
 d2 "Edim"e2 "D7"f2|!
"G"g8-|g2 fg a2 f2|"D7"f8-|f2 ef g2 f2|"Am7"e8-|e2 "D7"de f2 d2|G8|!
zDGF GABc|d2 dc d2 dc|d2 dc decd|B8|zDGF GABc|!
d2 dc d2 dc|d2 dc BcAB|G8|zDGF GABc|d2 dc d2 dc|!
d2 dc de cd|B8|zDGF GABc|d2 dc d2 dc|d2dc BcAB|!
G8-|G2z2 z4||

